X: 1
T: Flying Under The Bridge
M: 6/8
L: 1/8
R: jig
K: Emaj
|:g3 fef|gec BGB|g3 fef|gec BGE|
E2 g fef|gec BGB|gee fee|def e3:|
|:gee ceB|gea ebe|gee ceB|fed efe|
gee ceB|gea ebe|gee fee|def e3:|
|:g3 f3|gec Bce|g3 f3|gab agf|
g3 f3|gec Bce|gee fee|def e3:|
|:gec eBe|gea ebe|gec eBe|fed efe|
gec eBe|gea ebe|gee fee|def e3:|
